assets/img/plus.svg

<svg xmlns="http://www.w3.org/2000/svg" width="401.994" height="401.994" viewBox="0 0 401.994 401.994"><path d="M394 154.175c-5.33-5.33-11.806-7.994-19.417-7.994H255.81V27.41c0-7.61-2.665-14.084-7.993-19.414C242.487 2.666 236.02 0 228.397 0h-54.81c-7.613 0-14.085 2.663-19.415 7.993-5.33 5.33-7.994 11.803-7.994 19.414v118.775H27.408c-7.612 0-14.085 2.664-19.415 7.994S0 165.973 0 173.59v54.818c0 7.618 2.662 14.086 7.992 19.41 5.33 5.333 11.803 7.995 19.414 7.995h118.77V374.59c0 7.61 2.665 14.09 7.995 19.417 5.33 5.325 11.806 7.987 19.418 7.987H228.4c7.618 0 14.087-2.662 19.418-7.987 5.332-5.33 7.994-11.806 7.994-19.417V255.813h118.77c7.618 0 14.09-2.662 19.417-7.994 5.325-5.33 7.99-11.797 7.99-19.415v-54.82c0-7.615-2.66-14.086-7.993-19.413z"/></svg>

<?xml version="1.0" encoding="UTF-8"?>
<svg width="402px" height="402px" viewBox="0 0 402 402" version="1.1" xmlns="http://www.w3.org/2000/svg" xmlns:xlink="http://www.w3.org/1999/xlink">
    <!-- Generator: Sketch 51.1 (57501) - http://www.bohemiancoding.com/sketch -->
    <title>Shape</title>
    <desc>Created with Sketch.</desc>
    <defs></defs>
    <g id="Page-1" stroke="none" stroke-width="1" fill="none" fill-rule="evenodd">
        <g id="plus" fill="#5B616A" fill-rule="nonzero">
            <path d="M394,154.175 C388.67,148.845 382.194,146.181 374.583,146.181 L255.81,146.181 L255.81,27.41 C255.81,19.8 253.145,13.326 247.817,7.996 C242.487,2.666 236.02,0 228.397,0 L173.587,0 C165.974,0 159.502,2.663 154.172,7.993 C148.842,13.323 146.178,19.796 146.178,27.407 L146.178,146.182 L27.408,146.182 C19.796,146.182 13.323,148.846 7.993,154.176 C2.663,159.506 0,165.973 0,173.59 L0,228.408 C0,236.026 2.662,242.494 7.992,247.818 C13.322,253.151 19.795,255.813 27.406,255.813 L146.176,255.813 L146.176,374.59 C146.176,382.2 148.841,388.68 154.171,394.007 C159.501,399.332 165.977,401.994 173.589,401.994 L228.4,401.994 C236.018,401.994 242.487,399.332 247.818,394.007 C253.15,388.677 255.812,382.201 255.812,374.59 L255.812,255.813 L374.582,255.813 C382.2,255.813 388.672,253.151 393.999,247.819 C399.324,242.489 401.989,236.022 401.989,228.404 L401.989,173.584 C401.989,165.969 399.329,159.498 393.996,154.171 L394,154.175 Z" id="Shape"></path>
        </g>
    </g>
</svg>
